img/print.svg

<svg xmlns='http://www.w3.org/2000/svg' width='16' height='16' viewBox='0 0 16 16'><path d='m14 10v3l-1 2h-10l-1-2v-3h1v-8h10v8zm-1 1h-2v1h2zm-1-8h-8v7h8z'/><path d='m5 4h6v1h-6zm0 2h6v1h-6zm0 2h6v1h-6z'/></svg>

<svg xmlns='http://www.w3.org/2000/svg' width='16' height='16' viewBox='0 0 16 16'><path d='M14 10v3l-1 2H3l-1-2v-3h1V2h10v8h1zm-1 1h-2v1h2v-1zm-1-8H4v7h8V3z'/><path d='M5 4h6v1H5zM5 6h6v1H5zM5 8h6v1H5z'/></svg>
